X:1
T:Title
%%score { 1 | 2 }
L:1/8
Q:1/4=100
M:4/4
K:Ab
V:1 treble nm="Grand Piano"
V:2 bass 
V:1
 A2 CF E2 A2 | GAcB [CA]2 [CE]2 | [DF]2 [FA][Fd] [Ec]2 [EA]2 | [EB][EG][FA][=DF] E4 | A2 CF E2 A2 | %5
w: D.~B.~Purinton * * * *|||||
 F[EG][FA][Fd] [Ec]2 [EB]2 | [Ec]2 [EB][EA] [DF][EG][EA][FB] | [EA]2 [DG]2 [CA]4 | c2 e2 c>B A2 | %9
w: ||||
 [GB][GB][Ac][Ac] [GB]4 | c2 f2 e>d c2 | cc[EBd][EAc] [EGB]4 | A2 CF E2 A2 | GAcB [EA]2 [CE]2 | %14
w: |||||
 [DF][EG][EA][EB] [Ec][_Ge][Fd][FB] | [EA]2 [DG]2 [CA]4 |] %16
w: ||
V:2
 A,2 C,F, E,2 A,2 | [B,DE][A,CE][E,A,E][E,G,D] [A,,A,]2 [A,,A,]2 | %2
 [D,A,]2 [D,A,][D,A,] [A,,A,]2 [C,A,]2 | [B,,G,][B,,B,][B,,B,][B,,A,] [E,G,]4 | A,2 C,F, E,2 A,2 | %5
 [D,A,D][D,D][D,D][D,A,] [E,A,]2 [E,G,]2 | [A,,A,]2 [B,,G,][C,A,] [D,A,][D,B,][C,A,][D,D] | %7
 [E,C]2 [E,B,]2 [A,,A,]4 | [A,E]2 [A,CE]2 [A,EA]>[A,DE] [A,CE]2 | [E,E][E,E][A,E][A,E] [E,E]4 | %10
 [A,EA]2 [A,DA]2 [A,CA]>[A,FA] [A,EA]2 | [A,EA][A,EA][K:bass]G,A, E,4 | A,2 C,F, E,2 A,2 | %13
 [B,DE][A,CE][E,A,E][E,G,D] [A,,A,]2 [A,,A,]2 | %14
 [D,A,][D,B,][C,A,][B,,G,] [A,,A,][C,A,][D,A,][D,D] | [E,C]2 [E,B,]2 [A,,A,]4 |] %16

